X: 27300
T: Miss You
R: waltz
M: 3/4
K: Eminor
B3^A BA|B3^A BA|B3^A BA|B^A=A2G2|
F2B,2G2|F4^D2|E3F EF|EFG2A2|
B3^A BA|B3^A BA|B3^A BA|B^A=A2G2|
F2B,2G2|F4^D2|E3F EF|1 EFG2A2:|2 EF GA Bd||
c3B cB|c4^A2|B3c Bc|B2^d2e2|
f2B2a2|g4f2|e^d ef gf|gf e2B2|
c3B cB|c4^A2|B3c Bc|B2A2G2|
F2B,2G2|F4^D2|E3F EF|1 EF GA Bd:|2 EFG2A2||

